src/topics/icons/quora.svg

<svg height="142" preserveAspectRatio="xMidYMid" viewBox="0 0 512 142" width="512" xmlns="http://www.w3.org/2000/svg"><path d="m72.89856 110.49984c-4.91008-9.664-10.67008-19.42528-21.90592-19.42528-2.14784 0-4.29312.35584-6.26176 1.2544l-3.81696-7.63904c4.65152-3.99104 12.16768-7.1552 21.82912-7.1552 15.02976 0 22.74304 7.23968 28.86656 16.48128 3.6352-7.88992 5.3632-18.54464 5.3632-31.75168 0-32.98048-10.31424-49.91488-34.4064-49.91488-23.74144 0-33.99936 16.9344-33.99936 49.91488 0 32.8064 10.25792 49.56672 33.99936 49.56672 3.77344 0 7.19104-.41472 10.33216-1.3312zm5.88544 11.50976c-5.20448 1.3952-10.73408 2.16576-16.2176 2.16576-31.61344 0-62.5664-25.22624-62.5664-61.91104 0-37.03296 30.95296-62.26432 62.5664-62.26432 32.14336 0 62.79936 25.0496 62.79936 62.26432 0 20.70016-9.65888 37.52192-23.69792 48.39424 4.53632 6.7968 9.20576 11.31008 15.70816 11.31008 7.09632 0 9.9584-5.48352 10.43712-9.78432h9.2416c.54016 5.72672-2.32448 29.52704-28.15232 29.52704-15.64416 0-23.91552-9.06752-30.1184-19.70176zm66.9056-31.47008v-42.40896c0-4.83072-1.78432-6.976-7.33184-6.976h-5.90592v-11.26912h38.58688v60.11904c0 10.13504 5.48608 14.6048 13.83936 14.6048 6.85568 0 13.71392-3.0336 17.41312-9.9584v-46.52032c0-4.83072-1.78944-6.976-7.3344-6.976h-6.26176v-11.26912h38.94784v62.97344c0 6.272 2.32448 9.13152 9.47968 9.13152h1.2544v11.63008l-34.83136 5.54496v-11.98592h-.7168c-6.73792 8.22528-16.22016 13.77536-29.76 13.77536-15.20896 0-27.3792-7.69024-27.3792-30.41536zm143.3472 19.14624c13.71904 0 18.9312-11.93472 19.20512-35.96544.26624-23.50592-5.48608-34.88512-19.20512-34.88512-11.98592 0-19.50208 11.38432-19.50208 34.88512 0 24.03584 7.39328 35.96544 19.50208 35.96544zm0 11.26912c-24.80896 0-47.1808-18.9696-47.1808-47.23456 0-27.73504 21.83168-46.16448 47.1808-46.16448 26.42176 0 47.59552 18.78272 47.59552 46.16448 0 28.26496-21.17376 47.23456-47.59552 47.23456zm48.39424-1.78944v-11.27168h3.75808c9.3056 0 10.19904-2.68288 10.19904-10.73408v-49.02912c0-4.83072-2.50368-6.976-8.22784-6.976h-5.00992v-11.26912h35.36384l1.78944 18.42944h.71936c3.93728-13.24544 14.49216-20.224 24.38912-20.224 8.17152 0 14.55104 4.65408 14.55104 14.08 0 6.55872-3.15392 13.53984-11.98336 13.53984-7.936 0-9.48224-5.37088-16.04608-5.37088-5.84192 0-10.37824 5.55008-10.37824 13.71648v33.10336c0 8.0512 1.9712 10.73408 11.0976 10.73408h5.18656v11.27168zm117.72928-13.12c11.27424 0 15.9232-10.6752 15.9232-21.40416v-14.32064c-8.22784 8.5248-27.37664 8.82432-27.37664 24.03328 0 7.45472 4.41856 11.69152 11.45344 11.69152zm16.46336-.06144c-4.65408 8.94464-14.20032 14.97088-27.55584 14.97088-15.50592 0-25.52576-8.23552-25.52576-22.72512 0-29.1584 40.6144-21.40928 52.54144-40.7296v-2.09152c0-14.848-5.84448-17.17248-12.28544-17.17248-18.07104 0-9.8432 19.43296-26.4832 19.43296-7.98976 0-11.09248-4.82304-11.09248-10.25024 0-10.97472 13.12256-19.86304 37.75744-19.86304 23.31392 0 37.632 6.44352 37.632 29.6448v37.03552c0 5.72416 2.08896 8.82944 7.09888 8.82944 2.14528 0 3.93472-.59648 5.30432-1.55136l2.98496 7.2704c-2.44736 3.76064-8.94976 10.3808-21.29664 10.3808-10.73152 0-17.472-5.00992-18.368-13.18144z" fill="#b92b27"/></svg>

<?xml version="1.0" encoding="UTF-8" standalone="no"?>
<svg width="512px" height="142px" viewBox="0 0 512 142" version="1.1" xmlns="http://www.w3.org/2000/svg" xmlns:xlink="http://www.w3.org/1999/xlink" preserveAspectRatio="xMidYMid">
    <g>
        <path d="M72.89856,110.49984 C67.98848,100.83584 62.22848,91.07456 50.99264,91.07456 C48.8448,91.07456 46.69952,91.4304 44.73088,92.32896 L40.91392,84.68992 C45.56544,80.69888 53.0816,77.53472 62.74304,77.53472 C77.7728,77.53472 85.48608,84.7744 91.6096,94.016 C95.2448,86.12608 96.9728,75.47136 96.9728,62.26432 C96.9728,29.28384 86.65856,12.34944 62.5664,12.34944 C38.82496,12.34944 28.56704,29.28384 28.56704,62.26432 C28.56704,95.07072 38.82496,111.83104 62.5664,111.83104 C66.33984,111.83104 69.75744,111.41632 72.89856,110.49984 L72.89856,110.49984 L72.89856,110.49984 Z M78.784,122.0096 C73.57952,123.4048 68.04992,124.17536 62.5664,124.17536 C30.95296,124.17536 0,98.94912 0,62.26432 C0,25.23136 30.95296,0 62.5664,0 C94.70976,0 125.36576,25.0496 125.36576,62.26432 C125.36576,82.96448 115.70688,99.78624 101.66784,110.65856 C106.20416,117.45536 110.8736,121.96864 117.376,121.96864 C124.47232,121.96864 127.3344,116.48512 127.81312,112.18432 L137.05472,112.18432 C137.59488,117.91104 134.73024,141.71136 108.9024,141.71136 C93.25824,141.71136 84.98688,132.64384 78.784,122.0096 Z M145.6896,90.53952 L145.6896,48.13056 C145.6896,43.29984 143.90528,41.15456 138.35776,41.15456 L132.45184,41.15456 L132.45184,29.88544 L171.03872,29.88544 L171.03872,90.00448 C171.03872,100.13952 176.5248,104.60928 184.87808,104.60928 C191.73376,104.60928 198.592,101.57568 202.2912,94.65088 L202.2912,48.13056 C202.2912,43.29984 200.50176,41.15456 194.9568,41.15456 L188.69504,41.15456 L188.69504,29.88544 L227.64288,29.88544 L227.64288,92.85888 C227.64288,99.13088 229.96736,101.9904 237.12256,101.9904 L238.37696,101.9904 L238.37696,113.62048 L203.5456,119.16544 L203.5456,107.17952 L202.8288,107.17952 C196.09088,115.4048 186.60864,120.95488 173.0688,120.95488 C157.85984,120.95488 145.6896,113.26464 145.6896,90.53952 Z M289.0368,109.68576 C302.75584,109.68576 307.968,97.75104 308.24192,73.72032 C308.50816,50.2144 302.75584,38.8352 289.0368,38.8352 C277.05088,38.8352 269.53472,50.21952 269.53472,73.72032 C269.53472,97.75616 276.928,109.68576 289.0368,109.68576 Z M289.0368,120.95488 C264.22784,120.95488 241.856,101.98528 241.856,73.72032 C241.856,45.98528 263.68768,27.55584 289.0368,27.55584 C315.45856,27.55584 336.63232,46.33856 336.63232,73.72032 C336.63232,101.98528 315.45856,120.95488 289.0368,120.95488 Z M337.43104,119.16544 L337.43104,107.89376 L341.18912,107.89376 C350.49472,107.89376 351.38816,105.21088 351.38816,97.15968 L351.38816,48.13056 C351.38816,43.29984 348.88448,41.15456 343.16032,41.15456 L338.1504,41.15456 L338.1504,29.88544 L373.51424,29.88544 L375.30368,48.31488 L376.02304,48.31488 C379.96032,35.06944 390.5152,28.09088 400.41216,28.09088 C408.58368,28.09088 414.9632,32.74496 414.9632,42.17088 C414.9632,48.7296 411.80928,55.71072 402.97984,55.71072 C395.04384,55.71072 393.4976,50.33984 386.93376,50.33984 C381.09184,50.33984 376.55552,55.88992 376.55552,64.05632 L376.55552,97.15968 C376.55552,105.21088 378.52672,107.89376 387.65312,107.89376 L392.83968,107.89376 L392.83968,119.16544 L337.43104,119.16544 Z M455.16032,106.04544 C466.43456,106.04544 471.08352,95.37024 471.08352,84.64128 L471.08352,70.32064 C462.85568,78.84544 443.70688,79.14496 443.70688,94.35392 C443.70688,101.80864 448.12544,106.04544 455.16032,106.04544 Z M471.62368,105.984 C466.9696,114.92864 457.42336,120.95488 444.06784,120.95488 C428.56192,120.95488 418.54208,112.71936 418.54208,98.22976 C418.54208,69.07136 459.15648,76.82048 471.08352,57.50016 L471.08352,55.40864 C471.08352,40.56064 465.23904,38.23616 458.79808,38.23616 C440.72704,38.23616 448.95488,57.66912 432.31488,57.66912 C424.32512,57.66912 421.2224,52.84608 421.2224,47.41888 C421.2224,36.44416 434.34496,27.55584 458.97984,27.55584 C482.29376,27.55584 496.61184,33.99936 496.61184,57.20064 L496.61184,94.23616 C496.61184,99.96032 498.7008,103.0656 503.71072,103.0656 C505.856,103.0656 507.64544,102.46912 509.01504,101.51424 L512,108.78464 C509.55264,112.54528 503.05024,119.16544 490.70336,119.16544 C479.97184,119.16544 473.23136,114.15552 472.33536,105.984 L471.62368,105.984 L471.62368,105.984 Z" fill="#B92B27"></path>
    </g>
</svg>
